packages/core/src/svgs/tokens/mono/MTH.svg

<svg width="24" height="24" viewBox="0 0 24 24" fill="none" xmlns="http://www.w3.org/2000/svg">
<path d="M15.3812 15.9999L12.625 18.25V11.6999C12.625 10.6062 13.2375 9.54376 14.0813 8.88747L16.3749 6.99998V13.225C16.3749 14.3 16.1999 15.3499 15.3812 16.0062V15.9999ZM8.61247 16.0062C7.79372 15.3499 7.62498 14.3 7.62498 13.225V6.99998L9.91877 8.88747C10.3449 9.22803 10.6949 9.65445 10.9457 10.1389C11.1966 10.6235 11.3428 11.1554 11.3749 11.6999V18.25L8.61247 16.0062ZM20.5749 19.3624L18.2499 21.3749V7.62498C18.2499 6.48123 18.5438 5.36249 19.4374 4.64999L22 2.625V16.3874C22.0003 16.9583 21.8725 17.5221 21.6258 18.0371C21.3792 18.552 21.02 19.005 20.5749 19.3624ZM3.42499 19.3624C2.97987 19.005 2.62072 18.552 2.37409 18.0371C2.12744 17.5221 1.99961 16.9583 2 16.3874V2.625L4.56249 4.65625C5.44998 5.36249 5.74999 6.48123 5.74999 7.62498V21.3749L3.42499 19.3624Z" fill="white"/>
</svg>

<svg xmlns="http://www.w3.org/2000/svg" width="24" height="24" fill="none" viewBox="0 0 24 24">
    <path fill="#fff" d="m15.381 16-2.756 2.25V11.7c0-1.094.613-2.156 1.456-2.813L16.375 7v6.225c0 1.075-.175 2.125-.994 2.781zm-6.769.006c-.818-.656-.987-1.706-.987-2.781V7l2.294 1.887a3.9 3.9 0 0 1 1.456 2.813v6.55zm11.963 3.356-2.325 2.013V7.625c0-1.144.294-2.263 1.187-2.975L22 2.625v13.762a3.81 3.81 0 0 1-1.425 2.975m-17.15 0A3.81 3.81 0 0 1 2 16.387V2.625l2.562 2.031c.888.706 1.188 1.825 1.188 2.969v13.75z"/>
</svg>
